icons/svg/rabbit.svg

﻿<?xml version="1.0" encoding="utf-8"?>
<!DOCTYPE svg PUBLIC "-//W3C//DTD SVG 1.1//EN" "http://www.w3.org/Graphics/SVG/1.1/DTD/svg11.dtd">
<svg xmlns="http://www.w3.org/2000/svg" xmlns:xlink="http://www.w3.org/1999/xlink" version="1.1" baseProfile="full" width="24" height="24" viewBox="0 0 24.00 24.00" enable-background="new 0 0 24.00 24.00" xml:space="preserve">
	<path fill="#000000" fill-opacity="1" stroke-linejoin="round" d="M 22,17.5C 22,18.3284 21.3284,19 20.5,19C 19.9219,19 19.4202,18.673 19.1697,18.1938C 18.7229,19.1698 18.6425,20.2047 18.7879,20.9349C 19,22 18,22 18,22L 10,22C 9,22 8,22 7.83333,21.5C 7.66666,21 8.33333,20 10,19.5L 10.8778,19.2954C 5.822,15.7651 12,14 12,14C 10,13 8,14.25 8,15.25C 8,17.25 8.4555,17.9623 8.25,18.25C 7,20 6,22 6,22L 3.5,22C 3,19 6,21 6,19C 6,18 7.31348,16.8558 6.5,15.5C 5.63929,14.0655 5.93097,12.7956 6.33593,11.9737C 5.39301,11.9116 3.70271,11.7027 3,11C 2,10 5,6 7,6C 7.68395,6 8.13401,6.11695 8.51014,6.35084L 9.68648,2.95591C 9.8673,2.43406 10.4369,2.15761 10.9588,2.33842C 11.4806,2.51924 11.7571,3.08887 11.5763,3.61071L 10.8193,5.79522L 12.8266,4.63634C 13.3048,4.3602 13.9164,4.52408 14.1926,5.00237C 14.4687,5.48066 14.3049,6.09225 13.8266,6.36839L 10.3872,8.35409L 11,9C 13,11 15.6395,9.00967 17.5,10.25C 21.3615,12.8244 21.2881,14.881 20.7452,16.0199C 21.457,16.137 22,16.7551 22,17.5 Z M 5.73044,7.93594C 5.27258,8.24477 4.9445,8.75608 5.25334,9.21395C 5.56217,9.67181 6.39096,9.65285 6.84882,9.34401C 7.30668,9.03518 7.22023,8.55343 6.9114,8.09557C 6.60257,7.63771 6.1883,7.62711 5.73044,7.93594 Z "/>
</svg>

<svg xmlns="http://www.w3.org/2000/svg" version="1.1" baseProfile="full" width="24" height="24" viewBox="0 0 24.00 24.00" xml:space="preserve"><path fill="#000" fill-opacity="1" stroke-linejoin="round" d="M22 17.5c0 .828-.672 1.5-1.5 1.5-.578 0-1.08-.327-1.33-.806-.447.976-.528 2.01-.382 2.74C19 22 18 22 18 22h-8c-1 0-2 0-2.167-.5-.166-.5.5-1.5 2.167-2l.878-.205C5.822 15.765 12 14 12 14c-2-1-4 .25-4 1.25 0 2 .456 2.712.25 3C7 20 6 22 6 22H3.5C3 19 6 21 6 19c0-1 1.313-2.144.5-3.5-.86-1.434-.57-2.704-.164-3.526-.943-.062-2.633-.27-3.336-.974-1-1 2-5 4-5 .684 0 1.134.117 1.51.35l1.176-3.394c.18-.522.75-.798 1.273-.618.52.18.797.75.616 1.273l-.757 2.185 2.007-1.16c.478-.275 1.09-.11 1.366.367.276.48.112 1.09-.366 1.366l-3.44 1.986L11 9c2 2 4.64.01 6.5 1.25 3.86 2.574 3.788 4.63 3.245 5.77.712.117 1.255.735 1.255 1.48zM5.73 7.936c-.457.31-.786.82-.477 1.278.31.458 1.138.44 1.596.13.457-.31.37-.79.06-1.248-.307-.458-.722-.47-1.18-.16z"/></svg>
